X:1
T:Mouvement (III)
T:Mouvement (III)
T:Images
T:Claude Debussy
C:Claude Debussy
%%score { ( 1 4 ) | ( 2 3 5 6 ) }
L:1/8
Q:1/4=90
M:2/4
K:C
V:1 treble nm="Piano"
V:4 treble 
V:2 treble 
V:3 treble 
V:5 treble 
V:6 treble 
V:1
"^Animé (avec une légèreté fantasque mais précise)" x4 | x4 | x4 | x4 | %4
 (3(D/E/!pp!F/"_la m.d. en valeur\nsur la m.g.\n"(3D/E/F/(3D/E/F/(3D/E/F/ | %5
 (3D/E/F/(3D/E/F/(3D/E/F/)!<(!(3(_E/^F/A/)!<)! |!pp! (3(D/=E/=F/(3D/E/F/(3D/E/F/(3D/E/F/ | %7
 (3D/E/F/(3D/E/F/(3D/E/F/)!<(!(3(_E/^F/A/)!<)! | (.[DA].[DA].[DA].[EB]) | (.[DA].[DA].[DA].[EB]) | %10
 (.[DA].[DA])(.[CG].[CG]) |!pp! (.[CG].[CG].[CG].[CG]) | (.[CG].[CG].[CG].[CG]) | %13
 (.[CG].[CG].[CG].[CG]) | (.[CG].[CG].[CG].[CG]) | (3(C/D/_E/(3C/D/E/(3C/D/E/(3C/D/E/ | %16
 (3C/D/_E/(3C/D/E/(3C/D/E/)!<(!(3(^C/=E/G/)!<)! |!pp! (3(=C/D/_E/(3C/D/E/(3C/D/E/(3C/D/E/ | %18
 (3C/D/_E/(3C/D/E/(3C/D/E/)!<(!(3(^C/=E/G/)!<)! | %19
!pp!"_poco a poco cresc." (.[=CG].[CG].[CG].[DA]) | (.[CG].[CG].[CG].[DA]) | %21
 (.[=CG].[CG].[CG].[DA]) | (.[CG].[CG].[CG].[DA]) |!<(! (.[CG].[DA]) (.[CG].[DA]) | %24
 (.[CG].[DA]) (.[CG].[DA])!<)! |!p! (.[CG].[cg]) (.[CG].[cg]) | (.[CG].[cg]) (.[CG].[cg]) | %27
 (!tenuto![CG].[cg]) (!tenuto![CG].[cg]) | (!tenuto![CG].[cg])!<(! (!tenuto![CG].[cg])!<)! | %29
 z!f! (!tenuto![gd'g'] (3!tenuto![gd'g']!tenuto![fc'f']!tenuto![ebe'] | %30
!>(! .[dad'].[cgc'].[cgc'].[Gdg])!>)! | (3(D/E/F/(3D/E/F/(3D/E/F/(3D/E/F/ | %32
!>(! (3D/E/F/(3D/E/F/(3D/E/F/(3D/E/F/)!>)! |!p! (!tenuto![CG].[cg]) (!tenuto![CG].[cg]) | %34
 (!tenuto![CG].[cg])!<(! (!tenuto![CG].[cg])!<)! | (!tenuto![CG].[cg]) (!tenuto![CG].[cg]) | %36
 (!tenuto![CG].[cg])!<(! (!tenuto![CG].[cg])!<)! | z!f! (.[gd'g'] (3.[gd'g'].[fc'f'].[ebe'] | %38
!>(! .[dad'].[cgc'].[cgc'].[Gdg])!>)! | (3D/E/F/(3D/E/F/(3D/E/F/(3D/E/F/ | %40
 (3D/E/F/(3D/E/F/(3D/E/F/(3D/E/F/ | (3D/E/F/(3D/E/F/(3D/E/F/(3D/E/F/ | %42
 (3D/E/F/(3D/E/F/(3D/E/F/(3D/E/F/ | (3D/E/F/(3D/E/F/(3D/E/F/(3D/E/F/ | %44
 (3D/E/F/(3D/E/F/(3D/E/F/(3D/E/F/ |"_dim." (3D/E/F/(3D/E/F/(3D/E/F/(3D/E/F/ | %46
 (3D/E/F/(3D/E/F/(3D/E/F/(3D/E/F/ |!p! (3D/E/F/(3D/E/F/(3D/E/F/(3D/E/F/ | %48
!<(! (3D/E/F/(3G/A/B/(3G/A/B/(3E/F/G/!<)! |!p! (3D/E/F/(3D/E/F/(3D/E/F/(3D/E/F/ | %50
"_molto cresc." (3D/E/F/(3D/E/F/ (3D/E/F/[I:staff +1] (3([AB]/c/d/ | %51
[I:staff -1] (3[cd]/e/f/[I:staff +1](3[fg]/a/b/[I:staff -1] (3[c'd']/e'/f'/!8va(!(3[f'g']/a'/b'/) | %52
!ff! (3(c''/g'/c'/(3c''/g'/c'/(3c''/g'/c'/(3c''/g'/c'/ | %53
 (3c''/g'/c'/(3c''/g'/c'/(3c''/g'/c'/(3c''/g'/c'/ | %54
 (3c''/g'/c'/(3c''/g'/c'/)!>(! (3(g'/d'/g/(3g'/d'/g/)!8va)! | %55
 (3(c'/g/c/(3c'/g/c/ (3g/d/G/(3g/d/G/)!>)! |!mf! (3(c'/g/c/(3c'/g/c/(3c'/g/c/(3c'/g/c/ | %57
!>(! (3c'/g/c/(3c'/g/c/(3g/d/G/(3g/d/G/!>)! |"_dim." (3c'/g/c/(3c'/g/c/) (3(g/d/G/(3g/d/G/) | %59
 (3(c/G/C/(3c/G/C/) (3(g/d/G/(3g/d/G/) |!p!!>(! (3(c'/g/c/(3c'/g/c/ (3g/d/G/(3g/d/G/) | %61
 (3(c/G/C/(3c/G/C/) (3(G/D/G,/(3G/D/G,/)!>)! | %62
!pp! (3(G/D/G,/(3G/D/G,/"^morendo" (3G/D/G,/(3G/D/G,/) | (3(G/D/G,/(3G/D/G,/ (3G/D/G,/(3G/D/G,/) | %64
 (3(G/D/G,/(3G/D/G,/ (3G/D/G,/(3G/D/G,/) | (3(G/D/G,/(3G/D/G,/ (3G/D/G,/(3G/D/G,/) || %66
[K:D]!ppp! (3(!tenuto!G/D/G,/)(3(!tenuto!A/E/A,/) (3(!tenuto!=c/G/=C/(3c/G/C/ | %67
(3=c/G/=C/)(3(c/G/C/ (3!tenuto!d/A/D/(3d/A/D/) | %68
!<(! (3(!tenuto!=f/=c/=F/)(3(!tenuto!g/d/G/)!<)!!>(! (3(!tenuto!e/B/E/(3e/B/E/!>)! | %69
 (3e/B/E/(3e/B/E/) (3(!tenuto!d/A/D/(3d/A/D/) | %70
 (3(=c/G/=C/)(3(!tenuto!d/A/D/) (3(!tenuto!B/^F/B,/(3B/F/B,/ | %71
(3B/F/B,/(3c/F/B,/) (3(!tenuto!A/E/A,/)(3(!tenuto!B/F/[B,^E]/) | %72
!pp!!>(! (3(!tenuto!G/D/G,/(3G/D/G,/ (3G/D/G,/(3G/D/G,/ | %73
 (3G/D/G,/(3G/D/G,/ (3G/D/G,/(3G/D/G,/)!>)! | %74
!ppp! (3(!tenuto!G/D/G,/)(3(!tenuto!A/E/A,/) (3(!tenuto!=c/G/=C/(3c/G/C/ | %75
 (3=c/G/=C/(3c/G/C/) (3(!tenuto!d/A/D/(3d/A/D/) | %76
!<(! (3(!tenuto!=f/=c/=F/)(3(!tenuto!g/d/G/)!<)!!>(! (3(!tenuto!b/^f/B/(3b/f/B/ | %77
 (3b/f/B/(3b/f/B/ (3b/f/B/(3b/f/B/)!>)! | (3(b/f/B/(3b/f/B/(3b/f/B/(3b/f/B/ | %79
 (3b/f/B/(3b/f/B/(3b/f/B/(3b/f/B/) |!<(! (3(b/f/B/(3b/f/B/ (3b/f/B/(3b/f/B/)!<)! | %81
!p!!>(! (3(=c'/g/=c/(3c'/g/c/(3c'/g/c/(3c'/g/c/)!>)! | %82
!p!!<(! (3(!tenuto!b/^f/B/(3b/f/B/)!<)!!>(!(3(!tenuto!=c'/g/=c/(3c'/g/c/)!>)! | %83
!>(! (3(!tenuto!=f/=c/=F/(3f/c/F/)(3(!tenuto!^f/=B/^F/(3f/B/F/)!>)! | %84
!p! (3(!tenuto!_B/=F/_B,/(3B/F/B,/) (3(!tenuto!=B/^F/=B,/(3B/F/B,/) | %85
[K:bass]!>(! (3(!tenuto!E/B,/E,/(3E/B,/E,/)!>)!!pp! (3(!tenuto!^E/^B,/F,/(3E/B,/F,/ | %86
!>(! (3^E/^B,/F,/(3E/B,/F,/)(3(E/B,/F,/(3E/B,/F,/) | %87
 (3(!tenuto!F/^B,/F,/(3F/B,/F,/(3F/B,/F,/(3F/B,/F,/)!>)! | %88
[K:treble]!p![Q:1/4=100]"^En augmentant""^(sans presser)" (3[=F=G]/[B,D]/[FG]/ (3z/ [CE]/[GA]/ (3z/[I:staff +1] ^F/[I:staff -1](f/ (3f/f'/f/ | %89
 (3z/ f/F/ (3z/ F/F,/) (3z/[I:staff +1] (F/[I:staff -1]f/ (3f/f'/f/) | %90
 [Bd=fg][_Bcea] (3z/[I:staff +1] (F/[I:staff -1]^f/ (3f/f'/f/ | %91
 (3z/ f/F/ (3z/ F/F,/) (3z/[I:staff +1] (F/[I:staff -1]f/ (3f/f'/f/) | %92
 [FA=cd][=F^GBe] (3z/[I:staff +1] (^F/[I:staff -1]f/ (3f/f'/f/ | %93
 (3z/ f/F/ (3z/ F/F,/) [^DFAB][=D^E^G=c] | %94
 (3z/[I:staff +1] (F,/[I:staff -1]F/ (3z/ f'/f/ (3z/ f/F/ (3z/ F/F,/) | %95
 (3z/[I:staff +1] (F,/[I:staff -1]F/ (3z/ f'/f/ (3z/ f/F/ (3z/ F/F,/) | %96
!f! [B,^D^G][CE^A] (3z/[I:staff +1] F/[I:staff -1](f/ (3f/f'/f/ | %97
 (3z/ f/F/ (3z/ F/F,/ (3z/[I:staff +1] F/[I:staff -1]f/) (3f/f'/f/ | %98
 [B^d^g][ce^a] (3z/[I:staff +1] F/[I:staff -1](f/ (3f/f'/f/ | %99
 (3z/ f/F/ (3z/ F/F,/) (3z/[I:staff +1] (F/[I:staff -1]f/ (3f/f'/f/) | %100
 [F^A^d][^GBe] (3z/[I:staff +1] (F/[I:staff -1]f/ (3f/f'/f/ | %101
 (3z/ f/F/ (3z/ F/F,/)!<(! [=DF^A]2!<)! | %102
!ff! (3z/[I:staff +1] (F,/!<(![I:staff -1]F/ (3z/ f'/f/ (3z/ f/F/ (3z/ F/F,/!<)! | %103
 (3z/ f/F/) c [=DF^A]2 | %104
!ff! (3z/[I:staff +1] (F,/!<(![I:staff -1]F/ (3z/ f'/f/ (3z/ f/F/ (3z/ F/F,/!<)! | %105
 (3z/ f/F/) c [DF^A]2 |!ff!!<(! [^B,E^G][EG^B]!<)! (3z/[I:staff +1] (F/[I:staff -1]f/ (3f/f'/f/ | %107
 (3z/ f/F/) (3z/[I:staff +1] (F/!<(![I:staff -1]f/ (3f/f'/f/ !tenuto![=df^a])!<)! | %108
!fff! (3z/[I:staff +1] (F/[I:staff -1]f/ (3f/f'/f/[I:staff +1] (3F/[I:staff -1]f/F/[I:staff +1] (3F/[I:staff -1]f'/f/) | %109
 (3z/[I:staff +1] (F/[I:staff -1]f/ (3f/f'/f/[I:staff +1] (3F/[I:staff -1]f/F/[I:staff +1] (3F/[I:staff -1]f'/f/) | %110
"^dim.     molto"[I:staff +1] (3F/[I:staff -1]f'/f/[I:staff +1] (3F/[I:staff -1]f'/f/[I:staff +1] (3F/[I:staff -1]f'/f/[I:staff +1] (3F/[I:staff -1]f'/f/ | %111
[I:staff +1] (3F/[I:staff -1]f'/f/[I:staff +1] (3F/[I:staff -1]f'/f/[I:staff +1] (3F/[I:staff -1]f'/f/[I:staff +1] (3F/[I:staff -1]f'/f/ | %112
[I:staff +1] (3F/[I:staff -1]f'/f/[I:staff +1] (3F/[I:staff -1]f'/f/[I:staff +1] (3F/[I:staff -1]f'/f/[I:staff +1] (3F/[I:staff -1]f'/f/ | %113
!p![I:staff +1] (3F/!>(![I:staff -1]f'/f/[I:staff +1] (3F/[I:staff -1]f'/f/[I:staff +1] (3F/[I:staff -1]f'/f/[I:staff +1] (3F/[I:staff -1]f'/f/!>)! || %114
[K:C]!pp![Q:1/4=90] (3(D/E/F/(3D/E/F/(3D/E/F/(3D/E/F/ | %115
 (3D/E/F/(3D/E/F/(3D/E/F/)!<(!(3(_E/^F/A/)!<)! |!pp! (3(D/=E/=F/(3D/E/F/(3D/E/F/(3D/E/F/ | %117
 (3D/E/F/(3D/E/F/(3D/E/F/)!<(!(3(_E/^F/A/)!<)! | (.[DA].[DA].[DA].[EB]) | (.[DA].[DA].[DA].[EB]) | %120
 (.[DA].[DA])(.[CG].[CG]) | (.[CG].[CG].[CG].[CG]) | (.[CG].[CG].[CG].[CG]) | %123
 (.[CG].[CG].[CG].[CG]) | (.[CG].[CG].[CG].[CG]) | (3(C/D/_E/(3C/D/E/(3C/D/E/(3C/D/E/ | %126
 (3C/D/_E/(3C/D/E/(3C/D/E/)!<(!(3(^C/=E/G/)!<)! |!pp! (3(=C/D/_E/(3C/D/E/(3C/D/E/(3C/D/E/ | %128
 (3C/D/_E/(3C/D/E/(3C/D/E/)!<(!(3(^C/=E/G/)!<)! | %129
!pp!"_poco a poco cresc." (.[=CG].[CG].[CG].[DA]) | (.[CG].[CG].[CG].[DA]) | %131
 (.[=CG].[CG].[CG].[DA]) | (.[CG].[CG].[CG].[DA]) |!<(! (.[CG].[DA]) (.[CG].[DA]) | %134
 (.[CG].[DA]) (.[CG].[DA])!<)! |!p! (.[CG].[cg]) (.[CG].[cg]) | (.[CG].[cg]) (.[CG].[cg]) | %137
 (!tenuto![CG].[cg]) (!tenuto![CG].[cg]) | (!tenuto![CG].[cg])!<(! (!tenuto![CG].[cg])!<)! | %139
 z!f! (!tenuto![gd'g'] (3!tenuto![gd'g']!tenuto![fc'f']!tenuto![ebe'] | %140
!>(! .[dad'].[cgc'].[cgc'].[Gdg])!>)! | (3(D/E/F/(3D/E/F/(3D/E/F/(3D/E/F/ | %142
!>(! (3D/E/F/(3D/E/F/(3D/E/F/(3D/E/F/)!>)! |!p! (!tenuto![CG].[cg]) (!tenuto![CG].[cg]) | %144
 (!tenuto![CG].[cg])!<(! (!tenuto![CG].[cg])!<)! | (!tenuto![CG].[cg]) (!tenuto![CG].[cg]) | %146
 (!tenuto![CG].[cg])!<(! (!tenuto![CG].[cg])!<)! | z!f! .[gd'g'] (3.[gd'g'].[fc'f'].[ebe'] | %148
!>(! .[dad'].[cgc'].[cgc'].[Gdg]!>)! | (3D/E/F/(3D/E/F/(3D/E/F/(3D/E/F/ | %150
 (3D/E/F/(3D/E/F/(3D/E/F/(3D/E/F/ | (3D/E/F/(3D/E/F/(3D/E/F/(3D/E/F/ | %152
 (3D/E/F/(3D/E/F/(3D/E/F/(3D/E/F/ | (3D/E/F/(3D/E/F/(3D/E/F/(3D/E/F/ | %154
 (3D/E/F/(3D/E/F/(3D/E/F/(3D/E/F/ |!p!"_dim." (3([CD]/E/^F/(3[CD]/E/F/(3[CD]/E/F/(3[CD]/E/F/ | %156
 (3[E^F]/^G/^A/(3[FG]/A/^B/(3[_A_B]/c/d/(3[Bc]/d/e/ | %157
(3[cd]/e/^f/(3[de]/f/^g/(3[ef]/g/^a/(3[fg]/a/^b/ | %158
(3[_a_b]/c'/d'/(3[bc']/d'/e'/(3[c'd']/e'/^f'/(3[d'e']/f'/^g'/) | %159
!8va(! (3([e'^f']/^g'/^a'/(3[e'f']/g'/a'/(3[e'f']/g'/a'/(3[e'f']/g'/a'/ | %160
(3[e'^f']/^g'/^a'/(3[e'f']/g'/a'/(3[e'f']/g'/a'/(3[e'f']/g'/a'/ | %161
(3[e'^f']/^g'/^a'/(3[e'f']/g'/a'/(3[e'f']/g'/a'/(3[e'f']/g'/a'/ | %162
(3[e'^f']/^g'/^a'/(3[e'f']/g'/a'/(3[e'f']/g'/a'/(3[e'f']/g'/a'/ | %163
 (3[e'^f']/^g'/^a'/(3[e'f']/g'/a'/(3[e'f']/g'/a'/(3[e'f']/g'/a'/ | %164
(3[e'^f']/^g'/^a'/(3[e'f']/g'/a'/(3[e'f']/g'/a'/(3[e'f']/g'/a'/ | %165
 (3[^f'^g']/^a'/^b'/(3[f'g']/g'/b'/(3[_a'_b']/c''/d''/(3[a'b']/c''/d''/ | %166
 (3[_b'c'']/d''/e''/(3[b'c'']/d''/e''/(3[b'c'']/d''/e''/(3[b'c'']/d''/e''/ | %167
 (3[_b'c'']/d''/e''/(3[b'c'']/d''/e''/(3[b'c'']/d''/e''/(3[b'c'']/d''/e''/ | %168
 (3[_b'c'']/d''/e''/(3[b'c'']/d''/e''/(3[b'c'']/d''/e''/(3[b'c'']/d''/e''/ | %169
!pp! (3[_b'c'']/d''/e''/(3[b'c'']/d''/e''/(3[b'c'']/d''/e''/(3[b'c'']/d''/e''/ | %170
 (3[_b'c'']/d''/e''/(3[b'c'']/d''/e''/(3[b'c'']/d''/e''/(3[b'c'']/d''/e''/ | %171
 (3[_b'c'']/d''/e''/(3[b'c'']/d''/e''/(3[b'c'']/d''/e''/(3[b'c'']/d''/e''/ | %172
 (3[_b'c'']/d''/e''/(3[b'c'']/d''/e''/(3[b'c'']/d''/e''/(3[b'c'']/d''/e''/ | %173
 (3[_b'c'']/d''/e''/(3[b'c'']/d''/e''/(3[b'c'']/d''/e''/(3[b'c'']/d''/e''/ | %174
 (3[_b'c'']/d''/e''/(3[b'c'']/d''/e''/(3[b'c'']/d''/e''/(3[b'c'']/d''/e''/ | %175
 (3[_b'c'']/d''/e''/(3[b'c'']/d''/e''/(3[b'c'']/d''/e''/(3[b'c'']/d''/e''/- | %176
 !fermata!e''2)!8va)! z2 |] %177
V:2
!pp! (.[CG].[CG].[CG][I:staff -1]!tenuto!.[CG]) | %1
[I:staff +1] (.[CG].[CG].[CG][I:staff -1]!tenuto!.[CG]) | %2
[I:staff +1] (.[CG].[CG].[CG][I:staff -1]!tenuto!.[CG]) | %3
[I:staff +1] (.[CG].[CG].[CG][I:staff -1]!tenuto!.[CG]) |[I:staff +1] (.[CG].[CG].[CG].[CG] | %5
 .[CG].[CG].[CG]!tenuto!.[CG]) | (.[CG].[CG].[CG].[CG] | .[CG].[CG].[CG]!tenuto!.[CG]) | %8
 (3C/=F/G/(3d/G/F/ (3C/F/G/(3d/G/F/ | (3C/F/G/(3d/G/F/ (3C/F/G/(3d/G/F/ | %10
 (3C/F/G/(3d/G/F/ (3B,/E/F/!<(!(3c/F/E/!<)! | %11
 (3(!tenuto!._B,/_E/^F/(3c/F/E/) (3(!tenuto!.A,/E/F/(3c/F/E/) | %12
 (3(!tenuto!._B,/_E/^F/(3c/F/E/) (3(!tenuto!.G,/E/F/(3c/F/E/) | %13
 (3(!tenuto!._B,/_E/^F/(3c/F/E/) (3(!tenuto!.A,/E/F/(3c/F/E/) | %14
 (3(!tenuto!._B,/_E/^F/(3c/F/E/) (3(!tenuto!.G,/E/F/(3c/F/E/) | (.[_B,F].[B,F].[B,F].[B,F] | %16
 .[_B,F].[B,F].[B,F]!tenuto!.[B,F]) | (.[_B,F].[B,F].[B,F].[B,F] | %18
 .[_B,F].[B,F].[B,F]!tenuto!.[B,F]) | (3(_B,/_E/F/(3c/F/E/) (3(A,/D/F/(3c/F/E/) | %20
 (3(_B,/_E/F/(3c/F/E/) (3(G,/E/F/(3c/F/E/) | (3(_B,/_E/F/(3c/F/E/) (3(A,/E/F/(3c/F/E/) | %22
 (3(_B,/_E/F/(3c/F/E/) (3(G,/E/F/(3c/F/E/) | (3(_B,/_E/F/(3c/F/E/) (3(A,/E/F/(3c/F/E/) | %24
 (3(_B,/_E/F/(3c/F/E/) (3(G,/E/F/(3c/F/E/) |[K:bass] z[K:treble] (3(D/E/F/(3D/E/F/(3D/E/F/ | %26
 (3D/E/F/(3D/E/F/!<(!(3D/E/F/)(3(_E/^F/A/)!<)! | (3(D/=E/F/(3D/E/F/(3D/E/F/(3D/E/F/ | %28
 (3D/E/F/(3D/E/F/(3D/E/F/(3_E/^F/A/) | (3D/E/F/(3D/E/F/(3D/E/F/(3D/E/F/ | %30
 (3D/E/F/(3D/E/F/(3D/E/F/(3D/E/F/ | %31
 z[K:bass]!f!!f! (!tenuto![G,,D,G,] (3!tenuto![G,,D,G,]!tenuto![F,,C,F,]!tenuto![E,,B,,E,] | %32
 .[D,,A,,D,].[C,,G,,C,].[C,,G,,C,].G,,,) | %33
"_laisser vibrer"!ped! z[K:treble] (3(D/E/F/(3D/E/F/(3D/E/F/!ped-up! | %34
 (3D/E/F/(3D/E/F/(3D/E/F/)(3(_E/^F/A/) | (3(D/E/F/(3D/E/F/(3D/E/F/(3D/E/F/) | %36
 (3(D/E/F/(3D/E/F/(3D/E/F/)(3(_E/^F/A/) | (3(D/E/F/(3D/E/F/(3D/E/F/(3D/E/F/ | %38
 (3D/E/F/(3D/E/F/(3D/E/F/(3D/E/F/) | %39
[K:bass] z!f! (.[G,,D,G,] (3!tenuto![G,,D,G,]!tenuto![F,,C,F,]!tenuto![E,,B,,E,] | %40
 .[D,,A,,D,].[C,,G,,C,].[C,,G,,C,].[G,,,G,,]) |!<(! ([_B,,,_B,,]2!<)! [B,,_B,]2- | %42
 [_B,,_B,]!>(! [G,,G,]2!>)! [G,,,G,,]) |!<(! ([_B,,,_B,,]2!<)! [_B,,_B,]2- | %44
 [B,,B,]!>(! [G,,G,]2!>)! [G,,,G,,]) | ([F,,,F,,][G,,,G,,] [G,,,G,,]2-) | %46
 [G,,,G,,] ([F,,,F,,]2 [G,,,G,,]) | D,[G,B,] [F,A,]2- | [F,A,][CE][B,D][G,B,] | D,[G,B,] [F,A,]2- | %50
 [F,A,]2 x2[K:treble] |[K:bass] [G,,,G,,]4[K:treble] | %52
[K:bass] z !tenuto![G,DG] (3.[G,DG].[F,CF].[E,B,E] | (.[D,A,D].[C,G,C]) !tenuto![C,G,C]2- | %54
 [C,G,C]2 z2 | z4 | z !tenuto![G,DG] (3.[G,DG].[F,CF].[E,B,E] | %57
 (.[D,A,D].[C,G,C]) !tenuto![C,G,C]2- | [C,G,C]2 z2 | [G,,,G,,]2 [F,,,F,,]2 | %60
 ([E,,,E,,]2 [F,,,F,,]2) | ([E,,,E,,]2 [F,,,F,,]2) | z!f! (3(E,/_B,/^C/)!>(! B,2-!>)! | B,4- | %64
 B,4- | B,4 || %66
[K:D]"_Toutes les notes marquées du signe _ sonores, sans dureté,\nle reste très léger mais sans sécheresse.\n" (3(E,/_B,/^C/)(3(F,/=C/^D/) (3(A,/_E/^F/(3A,/E/F/ | %67
(3A,/_E/^F/(3A,/E/F/)[K:treble] (3(B,/=F/^G/(3B,/F/G/) | (3(D/_A/B/(3E/_B/^c/) (3(C/G/^A/(3C/G/A/ | %69
 (3C/G/^A/(3C/G/A/) (3(B,/=F/^G/(3B,/F/G/) | (3(A,/_E/^F/)(3(B,/=F/^A/) (3(^G,/D/^E/(3G,/D/E/ | %71
(3^G,/D/^E/(3G,/D/E/) (3(F,/=C/^D/) (3(G,/=D/) z/ |[K:bass] z!f! (3(E,/_B,/^C/)!>(! B,2-!>)! | %73
!pp! B,4 | (3(E,/_B,/C/)(3(F,/=C/^D/) (3(A,/_E/F/(3A,/E/F/ | %75
 (3A,/_E/F/(3A,/E/F/)[K:treble] (3(B,/=F/^G/(3B,/F/G/) | %76
 (3(D/_A/B/)(3(E/_B/^c/) (3(^G/c/e/(3G/c/e/ |(3^G/c/e/(3G/c/e/(3G/c/e/(3G/c/e/) | %78
"_un peu en dehors" (3((^G/c/e/) z z (3(G/c/e/ |(3^G/c/e/) z z (3.F/)c/e/ | %80
 (3(^G/c/e/(3G/c/e/(3G/c/e/(3G/c/e/) | (3(A/_B/=f/(3_A/B/f/(3A/B/f/(3A/B/f/) | %82
 (3(^G/_B/e/) z (3(_E/=G/_d/(3E/G/d/) | (3(=D/G/_B/) z (3(A,/^C/G/(3A,/C/G/) | %84
[K:bass] (3(G,/=C/_E/) z (3(D,/^F,/C/(3D,/F,/C/) | (3(^C,/F,/A,/) z (3(^G,,/^D,/^A,/(3G,,/D,/A,/ | %86
 (3^G,,/^D,/^A,/(3G,,/D,/A,/(3G,,/D,/A,/(3G,,/D,/A,/) | %87
 (3(^G,,/^D,/^A,/(3G,,/D,/A,/(3G,,/D,/A,/(3G,,/D,/A,/) | %88
"^le thème en\nvaleur et soutenu\n" z [C,E,G,A,] z (.F,,, | [E,G,B,C]2) [G,B,CE]2 | %90
 [B,D=FG][_B,CEA] [A,=CD^F]2- | [A,CD^F]2 [G,_B,=CE]2 | ([F,A,=CD][=F,^G,B,E] [E,=G,A,^C]2-) | %93
 [E,G,A,C]2 ([^D,F,A,B,][=D,^E,^G,C] | [C,E,=G,A,]4) | [D,F,B,]4 | %96
 ([B,,^D,^G,][C,E,^A,] [E,G,C]2-) | [E,^G,C]2 [G,B,E]2 | ([B,^D^G][CE^A] [^A,CF]2-) | %99
 [A,CF]2 [^G,B,E]2 | ([F,^A,^D][^G,B,E] [E,G,C]2-) | [E,G,C]2 ([F,^A,]2 | [^B,,E,^G,]4-) | %103
 [^B,,E,^G,]([E,G,C]=D,=B,,) | [^B,,E,^G,]4- | [^B,,E,^G,]([E,G,C]D,=B,,) | %106
 ([^B,,E,^G,][E,G,^B,] [G,B,E]2-) | [G,B,E] (!tenuto![E,^G,^B,]2[K:treble] !tenuto![=DF^A]) | %108
 !^![=CE^G]4 | !^![=C-E-^G]4 | [=CE^G]4- | [=CE^G]4- | [=CE^G]4- | [=CE^G]4 || %114
[K:C] (.[CG].[CG].[CG].[CG] | .[CG].[CG].[CG]!tenuto!.[CG]) | (.[CG].[CG].[CG].[CG] | %117
 .[CG].[CG].[CG]!tenuto!.[CG]) |!pp! (3C/=F/G/(3d/G/F/ (3C/F/G/(3d/G/F/ | %119
 (3C/F/G/(3d/G/F/ (3C/F/G/(3d/G/F/ | (3C/F/G/(3d/G/F/ (3B,/E/F/(3c/F/E/ | %121
 (3(!tenuto!._B,/_E/^F/(3c/F/E/) (3(!tenuto!.A,/E/F/(3c/F/E/) | %122
 (3(!tenuto!._B,/_E/^F/(3c/F/E/) (3(!tenuto!.G,/E/F/(3c/F/E/) | %123
 (3(!tenuto!._B,/_E/^F/(3c/F/E/) (3(!tenuto!.A,/E/F/(3c/F/E/) | %124
 (3(!tenuto!._B,/_E/^F/(3c/F/E/) (3(!tenuto!.G,/E/F/(3c/F/E/) | (.[_B,F].[B,F].[B,F].[B,F] | %126
 .[_B,F].[B,F].[B,F]!tenuto!.[B,F]) | (.[_B,F].[B,F].[B,F].[B,F] | %128
 .[_B,F].[B,F].[B,F]!tenuto!.[B,F]) | (3(_B,/_E/F/(3c/F/E/) (3(A,/E/F/(3c/F/E/) | %130
 (3(_B,/_E/F/(3c/F/E/) (3(G,/E/F/(3c/F/E/) | (3(_B,/_E/F/(3c/F/E/) (3(A,/E/F/(3c/F/E/) | %132
 (3(_B,/_E/F/(3c/F/E/) (3(G,/E/F/(3c/F/E/) | (3(_B,/_E/F/(3c/F/E/) (3(A,/E/F/(3c/F/E/) | %134
 (3(_B,/_E/F/(3c/F/E/) (3(G,/E/F/(3c/F/E/) |[K:bass] z[K:treble] (3(D/E/F/(3D/E/F/(3D/E/F/ | %136
 (3D/E/F/(3D/E/F/!<(!(3D/E/F/)(3(_E/^F/A/)!<)! | (3(D/=E/F/(3D/E/F/(3D/E/F/(3D/E/F/ | %138
 (3D/E/F/(3D/E/F/(3D/E/F/(3_E/^F/A/) | (3D/E/F/(3D/E/F/(3D/E/F/(3D/E/F/ | %140
 (3D/E/F/(3D/E/F/(3D/E/F/(3D/E/F/ | %141
[K:bass] z!f! .[G,,D,G,] (3(!tenuto![G,,D,G,]!tenuto![F,,C,F,]!tenuto![E,,B,,E,] | %142
 .[D,,A,,D,].[C,,G,,C,].[C,,G,,C,].G,,,) | %143
"_laisser vibrer"!ped! z[K:treble] (3(D/E/F/(3D/E/F/(3D/E/F/!ped-up! | %144
 (3D/E/F/(3D/E/F/(3D/E/F/)(3(_E/^F/A/) | (3(D/E/F/(3D/E/F/(3D/E/F/(3D/E/F/) | %146
 (3(D/E/F/(3D/E/F/(3D/E/F/)(3(_E/^F/A/) | (3(D/E/F/(3D/E/F/(3D/E/F/(3D/E/F/ | %148
 (3D/E/F/(3D/E/F/(3D/E/F/(3D/E/F/) | %149
 z[K:bass] (.[G,,D,G,] (3!tenuto![G,,D,G,]!tenuto![F,,C,F,]!tenuto![E,,B,,E,] | %150
 .[D,,A,,D,].[C,,G,,C,].[C,,G,,C,].[G,,,G,,]) |!<(! (!tenuto![_B,,,_B,,]2!<)! [B,,_B,]2- | %152
 [_B,,_B,]!>(! [G,,G,]2!>)! [G,,,G,,]) |!<(! ([_B,,,_B,,]2!<)! [B,,_B,]2- | %154
 [_B,,_B,]!>(! [G,,G,]2!>)! [G,,,G,,]) | ([^F,,,^F,,]4- | [^F,,,^F,,]4 | [E,,,E,,]4 | [D,,,D,,]4) | %159
 [C,,,C,,]4- | [C,,,C,,]4- | [C,,,C,,]4- | [C,,,C,,]4- | [C,,,C,,]4- | [C,,,C,,]4- | [C,,,C,,]4 | %166
 [C,,,C,,]4- | [C,,,C,,]4- | [C,,,C,,]4- |[K:treble] x4- | x4- | x4- |"^presque plus rien" x4- | %173
 x4- |[K:bass] _B,4 | _B,,4 | !fermata!C,,,2 z2 |] %177
V:3
 x4 | x4 | x4 | x4 | x4 | x4 | x4 | x4 | x4 | x4 | x4 | _B,/ x3/2 A,/ x3/2 | _B,/ x3/2 G,/ x3/2 | %13
 _B,/ x3/2 A,/ x3/2 | _B,/ x3/2 G,/ x3/2 | x4 | x4 | x4 | x4 | x4 | x4 | x4 | x4 | x4 | x4 | %25
[K:bass] !tenuto!C,,4[K:treble] | x4 | x4 | x4 | [CG]4- | [CG]4 | x[K:bass] x3 | x4 | %33
 !tenuto!.C,,,4[K:treble] | x4 | x4 | x4 | [CG]4- | [CG]4 |[K:bass] x4 | x4 | x4 | x4 | x4 | x4 | %45
 x4 | x4 | !arpeggio![G,,,G,,]4- | [G,,,G,,]4 | !arpeggio![G,,,G,,]4- | [G,,,G,,]4-[K:treble] | %51
[K:bass] z[K:treble] x3 |[K:bass] [C,,,C,,]4- | [C,,,C,,]4- | ([C,,,C,,]2 [D,,,D,,]2 | %55
 [C,,,C,,]2 [D,,,D,,]2) | [C,,,C,,]4- | [C,,,C,,]4- | [C,,,C,,]2 [D,,,D,,]2 | x4 | x4 | x4 | %62
 [^F,,,^F,,]4- | [F,,,F,,]4- | [F,,,F,,]4- | [F,,,F,,]4 ||[K:D] x4 | x2[K:treble] x2 | x4 | x4 | %70
 x4 | x4 |[K:bass] [F,,,F,,]4- | [F,,,F,,]4 | x4 | x2[K:treble] x2 | x4 | x4 | ^GF/E/ ^D2- | %79
 ^D.C.DF | ^G4 | _A4 | ^G^F/E/ _E2 | D=C/_B,/ A,2 |[K:bass] G,=F,/_E,/ D,2 | C,B,,/A,,/ ^G,,2 | %86
 ^G,,4 | ^G,,4 | [F,,,F,,]4 | .F,, .F, x2 | x2 z (.F,,, | .F,, .F,) x2 | x2 z (.F,,, | %93
 .F,, .F,) x2 | z (.F,,, .F,, .F,) | z (.F,,, .F,, .F,) | x2 z (.F,,, | .F,, .F,) x2 | %98
 x2 z (.F,,, | .F,, .F,) x2 | x2 z (.F,,, | .F,, .F,) =D,B,, | z (.F,,, .F,, .F, | F) x [F,^A,]2 | %104
 z (.F,,, .F,, .F, | F) x [F,^A,]2 | x2 z .F,,, | .F,, x2[K:treble] x | x4 | x4 | x4 | x4 | x4 | %113
 x4 ||[K:C] x4 | x4 | x4 | x4 | x4 | x4 | x4 | _B,/ x3/2 A,/ x3/2 | _B,/ x3/2 G,/ x3/2 | %123
 _B,/ x3/2 A,/ x3/2 | _B,/ x3/2 G,/ x3/2 | x4 | x4 | x4 | x4 | x4 | x4 | x4 | x4 | x4 | x4 | %135
[K:bass] C,,4[K:treble] | x4 | x4 | x4 | [CG]4- | [CG]4 |[K:bass] x4 | x4 | %143
 !tenuto!.C,,,4[K:treble] | x4 | x4 | x4 | [CG]4- | [CG]4 | x[K:bass] x3 | x4 | x4 | x4 | x4 | x4 | %155
 x4 | x4 | x4 | x4 | x4 | x4 | (.E,.^F, .^A,2- | A,2 .D2 | .^F.^G .E2-) | E4- | E2 z2 | %166
 z2!p! (E,^F, | _B,4 | D2 ^F^G |[K:treble] (_B)c e2- | e2 _a2 | c'd' _b2- | _b4) | _B4 | %174
[K:bass] x4 | [C,,,C,,]4 | x4 |] %177
V:4
 x4 | x4 | x4 | x4 | x4 | x4 | x4 | x4 | x4 | x4 | x4 | x4 | x4 | x4 | x4 | x4 | x4 | x4 | x4 | %19
 x4 | x4 | x4 | x4 | x4 | x4 | x4 | x4 | x4 | x4 | x4 | x4 | ([CG]4- | [CG]4) | x4 | x4 | x4 | x4 | %37
 x4 | x4 | [CG]4- | [CG]4 | !tenuto!C4- | C4 | !tenuto!C4- | C4 | C4- | C4 | C4- | C F2 D | C4 | %50
 C2 C x | x3!8va(! x | x4 | x4 | x4!8va)! | x4 | x4 | x4 | x4 | x4 | x4 | x4 | x4 | x4 | x4 | x4 || %66
[K:D] x4 | x4 | x4 | x4 | x4 | x4 | x4 | x4 | x4 | x4 | x4 | x4 | x4 | x4 | x4 | x4 | x4 | x4 | %84
 x4 |[K:bass] x4 | x4 | x4 |[K:treble] x2 [EGBc]2- | [EGBc]2 [GBce]2 | x2 [A=cd^f]2- | %91
 [Acd^f]2 [G_B=ce]2 | x2 [E=GA^c]2- | [EGAc]2 x2 | [CE=GA]4 | [DFB]4 | x2 [E^Gc]2- | %97
 [E^Gc]2 [GBe]2 | x2 [^Acf]2- | [A^cf]2 [^GBe]2 | x2 [E^Gc]2- | [E^Gc]2 DB, | [^B,E^G]4- | %103
 [^B,E^G][EG]D=B, | [^B,E^G]4- | [^B,E^G][EG]D=B, | x2 [^G^Be]2- | [GBe] !tenuto![E^G^B]2 x | %108
 !^![=ce^g]4- | !^![ceg]4 | [=ce^g]4- | [=ce^g]4- | [=ce^g]4- | [=ce^g]4 ||[K:C] x4 | x4 | x4 | %117
 x4 | x4 | x4 | x4 | x4 | x4 | x4 | x4 | x4 | x4 | x4 | x4 | x4 | x4 | x4 | x4 | x4 | x4 | x4 | %136
 x4 | x4 | x4 | x4 | x4 | [CG]4- | [CG]4 | x4 | x4 | x4 | x4 | x4 | x4 | [CG]4- | [CG]4 | %151
 !tenuto!C4- | C4 | !tenuto!C4- | C4 | x4 | x4 | x4 | x4 |!8va(! x4 | x4 | x4 | x4 | x4 | x4 | x4 | %166
 x4 | x4 | x4 | x4 | x4 | x4 | x4 | x4 | x4 | x4 | x2!8va)! x2 |] %177
V:5
 x4 | x4 | x4 | x4 | x4 | x4 | x4 | x4 | x4 | x4 | x4 | x4 | x4 | x4 | x4 | x4 | x4 | x4 | x4 | %19
 x4 | x4 | x4 | x4 | x4 | x4 |[K:bass] x[K:treble] x3 | x4 | x4 | x4 | x4 | x4 | x[K:bass] x3 | %32
 x4 | x[K:treble] x3 | x4 | x4 | x4 | x4 | x4 |[K:bass] x4 | x4 | x4 | x4 | x4 | x4 | x4 | x4 | %47
 x4 | x4 | x4 | x3[K:treble] x |[K:bass] x[K:treble] x3 |[K:bass] x4 | x4 | x4 | x4 | x4 | x4 | %58
 x4 | x4 | x4 | x4 | x4 | x4 | x4 | x4 ||[K:D] x4 | x2[K:treble] x2 | x4 | x4 | x4 | x4 | %72
[K:bass] x4 | x4 | x4 | x2[K:treble] x2 | x4 | x4 | x4 | x4 | x4 | x4 | x4 | x4 |[K:bass] x4 | x4 | %86
 x4 | x4 | x2 [E,G,B,C]2- | x4 | x4 | x4 | x4 | x4 | x4 | x4 | x4 | x4 | x4 | x4 | x4 | x4 | x4 | %103
 x4 | x4 | x4 | x4 | x3[K:treble] x | x4 | x4 | x4 | x4 | x4 | x4 ||[K:C] x4 | x4 | x4 | x4 | x4 | %119
 x4 | x4 | x4 | x4 | x4 | x4 | x4 | x4 | x4 | x4 | x4 | x4 | x4 | x4 | x4 | x4 | %135
[K:bass] x[K:treble] x3 | x4 | x4 | x4 | x4 | x4 |[K:bass] x4 | x4 | x[K:treble] x3 | x4 | x4 | %146
 x4 | x4 | x4 | x[K:bass] x3 | x4 | x4 | x4 | x4 | x4 | x4 | x4 | x4 | x4 | x4 | x4 | x4 | x4 | %163
 x4 | x4 | x4 | x4 | x4 | x4 |[K:treble] [A,,A,]4- | [A,,A,]4- | [A,,A,]4- | [A,,A,]4- | %173
 (([A,,A,]4 |[K:bass] [C,,,C,,]4-)) | x4 | x4 |] %177
V:6
 x4 | x4 | x4 | x4 | x4 | x4 | x4 | x4 | x4 | x4 | x4 | x4 | x4 | x4 | x4 | x4 | x4 | x4 | x4 | %19
 x4 | x4 | x4 | x4 | x4 | x4 |[K:bass] x[K:treble] x3 | x4 | x4 | x4 | x4 | x4 | x[K:bass] x3 | %32
 x4 | x[K:treble] x3 | x4 | x4 | x4 | x4 | x4 |[K:bass] x4 | x4 | x4 | x4 | x4 | x4 | x4 | x4 | %47
 x4 | x4 | x4 | x3[K:treble] x |[K:bass] x[K:treble] x3 |[K:bass] x4 | x4 | x4 | x4 | x4 | x4 | %58
 x4 | x4 | x4 | x4 | x4 | x4 | x4 | x4 ||[K:D] x4 | x2[K:treble] x2 | x4 | x4 | x4 | x4 | %72
[K:bass] x4 | x4 | x4 | x2[K:treble] x2 | x4 | x4 | x4 | x4 | x4 | x4 | x4 | x4 |[K:bass] x4 | x4 | %86
 x4 | x4 | x4 | x4 | x4 | x4 | x4 | x4 | x4 | x4 | x4 | x4 | x4 | x4 | x4 | x4 | x4 | x4 | x4 | %105
 x4 | x4 | x3[K:treble] x | x4 | x4 | x4 | x4 | x4 | x4 ||[K:C] x4 | x4 | x4 | x4 | x4 | x4 | x4 | %121
 x4 | x4 | x4 | x4 | x4 | x4 | x4 | x4 | x4 | x4 | x4 | x4 | x4 | x4 |[K:bass] x[K:treble] x3 | %136
 x4 | x4 | x4 | x4 | x4 |[K:bass] x4 | x4 | x[K:treble] x3 | x4 | x4 | x4 | x4 | x4 | %149
 x[K:bass] x3 | x4 | x4 | x4 | x4 | x4 | x4 | x4 | x4 | x4 | x4 | x4 | x4 | x4 | x4 | x4 | x4 | %166
 x4 | x4 | x4 |[K:treble] (E4- | E4-) | E4 | x4 | x4 |[K:bass] x4 | x4 | x4 |] %177

